X:1
T:Traditional African Melody
T:Arranged by KK German
T:The Lion Sleeps Tonight
C:Traditional African Melody
Z:Arranged by KK German
%%score 1 2
L:1/8
M:4/4
K:G
V:1 treble+8 nm="Recorder" snm="Rec."
V:2 treble+8 nm="Recorder" snm="Rec."
V:1
 G2 B z D2 z D | E>E E E3 z E | D>D D D3 z D | D>D D D3 z z | G2 B z D3 D | E>E E E3 z E | %6
 D>D D D3 z D | D>D D D3 z z | B>B B>B B>B B>B | c>c c>c c>c c>c | B>B B>B B>B B>B | %11
 A>A A>A A>A A>A | B>B B>B B>B B>B | c>c c>c c>c c>c | B>B B>B B>B B>B | A>A A>A A>A A>A | %16
 G2 A B2 A2 B | c2 B A2 G2 A | B A2 G2 B A2- | A6 z2 | d2 B A2 B2 d | c2 B A2 G2 A | %22
 B A2 G2 B A2- | A6 z2 | d8- | d2 c2 d2 c2 | B D2 D2 D D2- | D6 z2 | d8- | d2 c2 d2 c2 | %30
 B D2 D2 D D2- | D6 z2 | z2 BA GFED | C8 | z2 BA GFED | D8 | z2 BA GFED | C8 | z2 BA GFED | D8 | %40
 G2 E G3 z2 | G2 E G3 z2 | G6 FE | D8 | G2 E G3 z2 | G2 E G3 z2 | G6 FE | D8 | G8 | G8 | G8 |] %51
V:2
 z8 | z8 | z8 | z8 | z8 | z8 | z8 | z8 | G>G G>G G>G G>G | G>G G>G G>G G>G | G>G G>G G>G G>G | %11
 F>F F>F F>F F>F | G>G G>G G>G G>G | G>G G>G G>G G>G | G>G G>G G>G G>G | F>F F>F F>F F>F | z8 | %17
 z8 | z8 | z2 D2 F2 A2 | G8 | z2 G2 c2 e2 | d8 | z2 D2 F2 A2 | G>G G>G G>G G>G | G>G G>G G>G G>G | %26
 G>G G>G G>G G>G | F>F F>F F>F F>F | B>B B>B B>B B>B | c>c c>c c>c c>c | B>B B>B B>B B>B | %31
 A>A A>A A>A A>A | G8 | z2 G2 c2 e2 | d8 | z2 D2 F2 A2 | G8 | z2 G2 c2 e2 | d8 | z2 D2 F2 A2 | %40
 G>G G>G G>G G>G | G>G G>G G>G G>G | G>G G>G G>G G>G | F>F F>F F>F F>F | G>G G>G G>G G>G | %45
 G>G G>G G>G G>G | G>G G>G G>G G>G | F>F F>F F>F F>F | C8 | G8 | G8 |] %51

